public/images/ic_contractor.svg

<?xml version="1.0" encoding="UTF-8" standalone="no"?>
<svg width="43px" height="43px" viewBox="0 0 43 43" version="1.1" xmlns="http://www.w3.org/2000/svg" xmlns:xlink="http://www.w3.org/1999/xlink">
    <!-- Generator: Sketch 3.6.1 (26313) - http://www.bohemiancoding.com/sketch -->
    <title>ic_contractor</title>
    <desc>Created with Sketch.</desc>
    <defs></defs>
    <g id="Page-2" stroke="none" stroke-width="1" fill="none" fill-rule="evenodd" opacity="0.4">
        <g id="Artboard-6" transform="translate(-14.000000, -704.000000)" fill="#000000">
            <g id="ic_contractor" transform="translate(14.000000, 704.000000)">
                <g id="Icons">
                    <g>
                        <g id="Contract-detail-Copy">
                            <g id="ic_contractor">
                                <g id="Group">
                                    <g id="Shape" transform="translate(19.392157, 0.000000)">
                                        <path d="M3.81941176,9.14213725 C3.80760784,9.26692157 3.79158824,9.39001961 3.79158824,9.5164902 C3.79158824,12.4632549 6.07901961,14.8501765 8.89931373,14.8501765 C11.7187647,14.8501765 14.0045098,12.4624118 14.0045098,9.5164902 C14.0045098,9.38917647 13.9868039,9.26607843 13.9783725,9.14213725 L3.81941176,9.14213725 L3.81941176,9.14213725 L3.81941176,9.14213725 Z"></path>
                                        <path d="M15.3897843,6.87578431 C15.055902,3.91468627 13.3451765,1.48645098 11.0552157,0.536235294 L11.0552157,5.09170588 C11.0552157,5.3615098 10.836,5.57988235 10.5670392,5.57988235 C10.2972353,5.57988235 10.0788627,5.3615098 10.0788627,5.09170588 L10.0788627,0.229333333 C9.70113725,0.14754902 9.31329412,0.0986470588 8.91533333,0.0986470588 C8.5207451,0.0986470588 8.13627451,0.148392157 7.76107843,0.230176471 L7.76107843,5.09170588 C7.76107843,5.3615098 7.54270588,5.57988235 7.2737451,5.57988235 C7.00394118,5.57988235 6.78556863,5.3615098 6.78556863,5.09170588 L6.78556863,0.537921569 C4.49982353,1.49319608 2.77813725,3.93070588 2.42233333,6.87578431 L0.735215686,6.87578431 L0.735215686,8.14470588 L17.0819608,8.14470588 L17.0819608,6.87578431 L15.3897843,6.87578431 L15.3897843,6.87578431 L15.3897843,6.87578431 Z"></path>
                                    </g>
                                    <path d="M35.1689412,16.173902 L32.9734118,16.1730588 L29.584,23.7064902 L29.584,16.0246667 L27.2417647,16.0246667 L27.2417647,23.6297647 L23.8852353,16.1688431 L21.6922353,16.168 C18.1198627,16.168 15.3771373,18.7488431 14.7936863,22.1896863 L11.9809804,12.4202549 C11.9126863,12.1841765 11.7238235,12.002902 11.4852157,11.9455686 L6.84711765,10.8284118 C5.38511765,10.6623137 4.20472549,10.884902 3.24270588,11.5113529 C2.10952941,12.2482549 1.30939216,13.2962745 0.989843137,14.4648627 C0.691372549,15.5567255 0.854098039,16.6941176 1.40129412,17.7235882 C1.40803922,17.7412941 1.4055098,17.759 1.41394118,17.7767059 L7.7265098,31.2761765 L7.28976471,31.4911765 C4.11788235,33.0501373 6.38254902,37.6545098 9.55527451,36.0938627 L9.90096078,35.9243922 L12.0998627,40.6257255 C12.4548235,41.3862353 13.1369216,41.9916078 13.9707843,42.287549 C14.3628431,42.4266667 14.7785098,42.4949608 15.2051373,42.4949608 C15.8594118,42.4949608 16.5398235,42.3330784 17.1974706,42.0118431 C19.0852549,41.0902941 19.9258627,39.1468627 19.1527059,37.490098 L19.1206667,37.4226471 C19.1316275,37.3332745 19.1257255,37.2405294 19.0995882,37.1494706 L18.6383922,35.5466667 C18.9545686,35.1318431 19.1678824,34.5838039 19.1678824,33.8671373 L19.1678824,24.0302549 L20.5986863,24.0302549 L20.5961569,41.5464314 L36.5373529,41.5464314 L36.5432549,24.0302549 L37.9437059,24.0302549 L37.9437059,39.0591765 C37.9437059,42.4865294 42.4114902,42.4865294 42.4022157,39.0591765 L42.4022157,23.6668627 C42.4022157,19.8828627 39.5987843,16.173902 35.1689412,16.173902 L35.1689412,16.173902 L35.1689412,16.173902 Z M2.74609804,17.3627255 C2.22503922,16.560902 2.07411765,15.6831961 2.30766667,14.8248824 C2.53784314,13.980902 3.13478431,13.2111176 3.98719608,12.6571765 C4.68278431,12.2044118 5.53941176,12.0551765 6.60935294,12.1706863 L10.7778235,13.1799216 L15.571902,29.8318824 L8.74080392,15.222 C8.729,15.1967059 8.70792157,15.1806863 8.69358824,15.1579216 C8.60927451,14.9429216 8.50219608,14.7329804 8.3715098,14.5314706 C7.49801961,13.1883529 5.69286275,12.8064118 4.34805882,13.6807451 C3.21066667,14.4210196 2.88690196,15.9487843 3.62633333,17.0878627 C4.26205882,18.0608431 5.56807843,18.3373922 6.54021569,17.7058824 C7.38082353,17.1578431 7.62027451,16.0271961 7.07476471,15.1865882 C6.97190196,15.0280784 6.84543137,14.8914902 6.69872549,14.7801961 C6.90529412,14.8982353 7.08656863,15.0643333 7.22484314,15.2768039 C7.85635294,16.2472549 7.58064706,17.549902 6.61188235,18.1797255 C5.3185098,19.0194902 3.58501961,18.6518824 2.74609804,17.3627255 L2.74609804,17.3627255 L2.74609804,17.3627255 Z M16.5988431,40.7833922 C15.8442353,41.1518431 15.0719216,41.2251961 14.4269216,40.9992353 C13.9362157,40.8247059 13.539098,40.4790196 13.3375882,40.0473333 L11.1277255,35.321549 L11.2423922,35.2650588 C14.4151176,33.7077843 12.150451,29.1008824 8.97772549,30.6632157 L8.95496078,30.6750196 L3.86578431,19.7926471 C5.00570588,20.142549 6.28137255,20.0228235 7.35721569,19.325549 C7.87911765,18.9849216 8.26611765,18.5211961 8.53254902,18.0018235 L17.9141373,38.0676471 C18.3635294,39.0305098 17.7977843,40.1982549 16.5988431,40.7833922 L16.5988431,40.7833922 L16.5988431,40.7833922 Z" id="Shape"></path>
                                </g>
                            </g>
                        </g>
                    </g>
                </g>
            </g>
        </g>
    </g>
</svg>

<svg width="43" height="43" viewBox="0 0 43 43" xmlns="http://www.w3.org/2000/svg"><title>ic_contractor</title><g fill="#000" fill-rule="evenodd" opacity=".4"><path d="M23.212 9.142c-.012.125-.028.248-.028.374 0 2.947 2.287 5.334 5.107 5.334 2.82 0 5.106-2.388 5.106-5.334 0-.127-.018-.25-.026-.374H23.21zM34.782 6.876c-.334-2.961-2.045-5.39-4.335-6.34v4.556a.488.488 0 0 1-.976 0V.229A5.486 5.486 0 0 0 28.307.1c-.394 0-.779.05-1.154.131v4.862a.488.488 0 1 1-.975 0V.538c-2.286.955-4.008 3.393-4.364 6.338h-1.687v1.269h16.347v-1.27h-1.692z"/><path d="M35.169 16.174h-2.196l-3.389 7.532v-7.681h-2.342v7.605l-3.357-7.461-2.193-.001c-3.572 0-6.315 2.58-6.898 6.022l-2.813-9.77a.682.682 0 0 0-.496-.474l-4.638-1.118c-1.462-.166-2.642.057-3.604.683-1.133.737-1.934 1.785-2.253 2.954-.299 1.092-.136 2.23.411 3.259.007.017.005.035.013.053l6.313 13.5-.437.214c-3.172 1.56-.907 6.164 2.265 4.603l.346-.17 2.199 4.702c.355.76 1.037 1.366 1.87 1.662.393.139.809.207 1.235.207.654 0 1.335-.162 1.992-.483 1.888-.922 2.729-2.865 1.956-4.522l-.032-.067a.686.686 0 0 0-.021-.274l-.462-1.602c.317-.415.53-.963.53-1.68V24.03h1.43l-.002 17.516h15.941l.006-17.516h1.4v15.03c0 3.427 4.468 3.427 4.46 0V23.666c0-3.784-2.804-7.493-7.234-7.493zM2.746 17.363c-.521-.802-.672-1.68-.438-2.538.23-.844.827-1.614 1.68-2.168.695-.453 1.551-.602 2.621-.486l4.169 1.009 4.794 16.652-6.831-14.61c-.012-.025-.033-.041-.047-.064a3.497 3.497 0 0 0-.322-.627 2.912 2.912 0 0 0-4.024-.85 2.467 2.467 0 0 0-.722 3.407 2.111 2.111 0 0 0 2.914.618 1.826 1.826 0 0 0 .535-2.52 1.602 1.602 0 0 0-.376-.406c.206.118.388.284.526.497a2.1 2.1 0 0 1-.613 2.903 2.799 2.799 0 0 1-3.866-.817zM16.6 40.783c-.755.369-1.527.442-2.172.216-.49-.174-.888-.52-1.09-.952l-2.21-4.725.115-.057c3.173-1.557.908-6.164-2.264-4.602l-.023.012-5.09-10.882c1.14.35 2.416.23 3.492-.467a3.43 3.43 0 0 0 1.176-1.324l9.381 20.066c.45.963-.116 2.13-1.315 2.715z"/></g></svg>
